X:309
T:All Praise To Thee, My God, This Night
%%stretchlast false
M:4/4
L:1/4
K:F clef=C1
"^I"[FAcf] [CGcf] "^V"[CGce] "^vi"[DFAf] | "^I¹"[A,Fcf] "^ii7¹"[B,Fdg] "^V"[CEcg] "^I"[F,Fca] | "^I¹"[A,Ff] "^ii"[G,Gdb] [G,Geb] "^I"[F,Afa] | [Fca] "^ii7³"[FBdg] "^V7¹"[EBcg] "^I"[FAcf] | [FAfc'] "^ii"[Gdb] "^V¹"[EGcg] "^I"[Fca] | [F,ca] "^ii¹"[B,Bdg] "^V"[CGeg] "^I"[F,Af] | "^I¹"[A,FAc] "^ii¹"[B,Gd] "^V"[CGce] "^vi"[DFAf] | "^iii"[A,Cca] "^ii¹"[B,DBg] "^V"[CEGg] "^I"[F,FAf] |]
